X:1
T:Bobbing Joe
C:John Playford, 1651
L:1/8
Q:3/8=120
M:6/8
I:linebreak $
K:C
V:1 treble 
V:1
"Am""^A" A2 e e2 d |"C" e>fg"G" B>AG |"Am" A2 B"E7" c>dB |"Am" A e2 A3 |"Am" A2 e e2 d | %5
"C" e>fg"G" B>AG |"Am" A2 B"E7" c>dB |"Am" A e2 A3 |$"G""^B" B d2 G3 |"G" B d2 G2 G | %10
"Am" A2 B"F" c>BA |"Am" c>de A3 |] %12
